dist/svgs/crypto-icons/icons/dgx.svg

<?xml version="1.0" encoding="UTF-8" standalone="yes"?>
<svg xmlns="http://www.w3.org/2000/svg" xmlns:xlink="http://www.w3.org/1999/xlink" width="512px" height="512px" viewBox="0 0 384 384" version="1.1">
  <g id="surface1">
    <path style=" stroke:none;fill-rule:nonzero;fill:rgb(0%,0%,0%);fill-opacity:1;" d="M 110.363281 141.085938 L 163.300781 141.085938 L 163.300781 158.324219 L 110.363281 158.324219 Z M 110.363281 141.085938 "/>
    <path style=" stroke:none;fill-rule:nonzero;fill:rgb(0%,0%,0%);fill-opacity:1;" d="M 191.808594 0 C 85.878906 0 0 85.878906 0 191.808594 C 0 297.746094 85.878906 383.621094 191.808594 383.621094 C 297.746094 383.621094 383.621094 297.746094 383.621094 191.808594 C 383.621094 85.878906 297.746094 0 191.808594 0 Z M 197.773438 85.6875 L 290.105469 85.6875 L 290.105469 104.152344 L 217.46875 104.152344 L 217.46875 158.320312 L 270.410156 158.320312 L 270.410156 141.082031 L 233.472656 141.082031 L 233.472656 122.621094 L 290.105469 122.621094 L 290.105469 176.789062 L 197.773438 176.789062 Z M 92.777344 86.683594 L 150.605469 86.683594 L 150.605469 108.882812 L 92.777344 108.882812 Z M 90.667969 122.621094 L 163.304688 122.621094 L 163.304688 85.6875 L 184.230469 85.6875 L 184.230469 176.789062 L 90.667969 176.789062 Z M 292.664062 305.828125 L 250.789062 305.828125 L 191.949219 265.417969 L 133.105469 305.828125 L 91.230469 305.828125 L 171.011719 251.039062 L 91.230469 196.257812 L 133.105469 196.257812 L 191.945312 236.660156 L 250.789062 196.257812 L 292.664062 196.257812 L 212.882812 251.039062 Z M 292.664062 305.828125 "/>
  </g>
</svg>

<svg xmlns="http://www.w3.org/2000/svg" viewBox="0 0 384 384"><path d="M110.363 141.086h52.938v17.238h-52.938zm0 0"/><path d="M191.809 0C85.879 0 0 85.879 0 191.809 0 297.746 85.879 383.62 191.809 383.62c105.937 0 191.812-85.875 191.812-191.812C383.621 85.879 297.746 0 191.81 0zm5.964 85.688h92.332v18.464H217.47v54.168h52.941v-17.238h-36.937v-18.46h56.632v54.167h-92.332zm-104.996.996h57.828v22.199H92.777zm-2.109 35.937h72.637V85.688h20.925v91.101H90.668zm201.996 183.207H250.79l-58.84-40.41-58.844 40.41H91.23l79.782-54.789-79.782-54.781h41.875l58.84 40.402 58.844-40.402h41.875l-79.781 54.781zm0 0"/></svg>
